X: 021843
T: Bellharbour Reel
C: Chris Droney
S: Ron Lister
L: 1/8
M: 4/4
R: reel
K: Ador
gf|eAAA a2 bg|agef gedc|BGdG eG A2|BGBd gedg|
eAAA a2 bg|agef gabg|agab gedB|GABG A2 :|
e2|a2 ea agbg|agef gedc|BGdG eG A2|BGBd gedg|
eaab a2 ga|bg g2 ag e2|agab gedB|GABG A2 :|
